X:6
T:Bachelor's easy life - Olver
%%VWML:SBG-1-2-614-0
F:http://www.vwml.org/record/SBG/1/2/614
Z:Original Sibelius transcriptions by M. & S. Graebe
M:6/8
I:linebreak $
K:Bb
V:1 treble nm="P1"
V:1
 F | B B B B2 G | F2 D B,2 B | c3/2 c/ c c c B | A2 c2 z F | B3/2 B/ B B2 B/G/ | %6
 F3/2 F/ D B,2 !fermata!d/c/ |$ c A F F A c | d B d B z c | c A F F A c | d B3 G ||"chorus" B G G G2 A | %12
 B G G G2 A |$ B G G G2 A | B2 "get her"G3 F | F B B B B c | d B B B2 F | F B B B B c | d B3 x2 |]%19

